chart-bell-curve.svg

<svg fill="currentColor" viewBox="0 0 24 24"><path d="M9.96 11.31C10.82 8.1 11.5 6 13 6s2.18 2.1 3.04 5.31C17 14.92 18.1 19 22 19v-2c-2.2 0-3-2.46-4.03-6.2C17.08 7.46 16.15 4 13 4s-4.08 3.46-4.97 6.8C7.03 14.54 6.2 17 4 17V2H2v20h20v-2H4v-1c3.9 0 5-4.08 5.96-7.69"/></svg>

<svg  viewBox="0 0 24 24" fill="currentColor"><path  d="M9.96,11.31C10.82,8.1 11.5,6 13,6C14.5,6 15.18,8.1 16.04,11.31C17,14.92 18.1,19 22,19V17C19.8,17 19,14.54 17.97,10.8C17.08,7.46 16.15,4 13,4C9.85,4 8.92,7.46 8.03,10.8C7.03,14.54 6.2,17 4,17V2H2V22H22V20H4V19C7.9,19 9,14.92 9.96,11.31Z"/></svg>
